X: 311
T: Snake River
B: canberra pickers and fiddlers
B: tunes
M:4/4
L:1/8
R: reel
Q: 1/4=100
K:D
V:1 
|:fg|"D" a2 a2 fedf|"A" efed "G" B2 AB|"D" d2 d2 fede|"D" faaf a2 fg|
"D" a2 a2 fedf|"A" efed "G" B2 AB|"D" d2 d2 "G" BAFE|"D" D6:|
|:AB|"C" =c2 =cA "G" B2 BG|"D" A2 AB AFDA|"C" =c2 =cA "G" B2 AG|"D" A2 d4 AB|
"C" =c2 =cA "G" B2 BG|"D" A2 AB AF D2|" D" A,DDE "G" FD E2|"D" D6:|
% abcbook-tune_id 63da59340559a32bc9998350
% abcbook-tune_composer_id 
% abcbook-link-0 https://www.youtube.com/watch?v=wKIKbndvLDw
% abcbook-link-start-at-0 5
% abcbook-boost 0
% abcbook-difficulty 0
% abcbook-tags canberra pickers and fiddlers,old time tunes,© free
% abcbook-tablature 
% abcbook-transpose 
% abcbook-tuning ADAE
% abcbook-lastupdated 1734219434864
% abcbook-src-url https://tunebook.net/scrape/tunes.abc
% abcbook-soundfonts 
% abcbook-repeats 1
%%gchordfont "itim-music,Itim" 20

